assets/for_youths_by_youths-7fae4394.svg

<svg xmlns="http://www.w3.org/2000/svg" width="349" height="120" fill="none" viewBox="0 0 349 120"><path fill="#7C3AED" d="M3.36 1.7h28.38v8.4H13.08v10.32h15.66v8.4H13.08V48.5H3.36V1.7Zm49.73 47.58c-12.12 0-17.82-6.78-17.82-22.98v-2.4C35.27 7.7 40.97.92 53.09.92 65.27.92 70.97 7.7 70.97 23.9v2.4c0 16.2-5.7 22.98-17.88 22.98Zm-.24-8.4h.54c6 0 7.68-5.22 7.68-14.58v-2.4c0-9.36-1.68-14.58-7.68-14.58h-.54c-6 0-7.74 5.22-7.74 14.58v2.4c0 9.36 1.74 14.58 7.74 14.58Zm33.53-9.18v16.8h-9.72V1.7h15.36c7.62 0 16.261 1.98 16.261 14.4v1.2c0 7.56-3.18 11.28-7.38 13.02l7.38 18.18h-10.5l-6.42-16.8h-4.98Zm0-8.4h6.06c2.64 0 6-1.02 6-6.3v-.6c0-5.28-3.36-6.3-6-6.3h-6.06v13.2Z"/><path fill="#000" d="M145.339 34.16V48.5h-9.72V34.16L122.179 1.7h10.62l7.68 20.46 7.62-20.46h10.62l-13.38 32.46Zm32.438 15.12c-12.12 0-17.82-6.78-17.82-22.98v-2.4c0-16.2 5.7-22.98 17.82-22.98 12.18 0 17.88 6.78 17.88 22.98v2.4c0 16.2-5.7 22.98-17.88 22.98Zm-.24-8.4h.54c6 0 7.68-5.22 7.68-14.58v-2.4c0-9.36-1.68-14.58-7.68-14.58h-.54c-6 0-7.74 5.22-7.74 14.58v2.4c0 9.36 1.74 14.58 7.74 14.58Zm40.311 8.4c-12.72 0-16.8-5.4-16.8-15.6V1.7h9.72v31.68c0 4.98 1.56 7.5 7.08 7.5s7.14-2.52 7.14-7.5V1.7h9.72v31.98c0 10.2-4.14 15.6-16.86 15.6Zm41.465-39.18v38.4h-9.72V10.1h-10.8V1.7h31.38v8.4h-10.86Zm38.559-8.4h9.72v46.8h-9.72V28.82h-13.62V48.5h-9.72V1.7h9.72v18.72h13.62V1.7Zm30.485 27.24c-10.2-1.38-15-4.98-15-13.44v-.66c0-8.46 5.82-13.92 16.5-13.92 11.52 0 16.56 5.1 16.56 16.08v1.26h-9.72c0-6.12-1.86-8.94-6.78-8.94h-.54c-3.9 0-6.18 2.16-6.18 5.16v.3c0 3.42 1.38 5.22 8.22 6.12 10.2 1.38 15.36 4.86 15.36 13.56v.6c0 9-5.94 14.22-16.92 14.22-11.04 0-16.86-4.92-16.86-16.2v-.54h9.72c0 5.88 2.4 8.34 6.9 8.34h.54c4.5 0 6.72-2.4 6.72-5.52v-.3c0-3.36-1.74-5.22-8.52-6.12Z"/><path fill="#7C3AED" d="M3.752 66.24h17.152c8.174 0 16.817 2.211 16.817 14.472v1.34c0 4.757-2.077 7.705-5.092 9.447 3.752 1.809 6.432 5.025 6.432 10.653v1.34c0 12.73-9.179 15.008-17.621 15.008H3.752V66.24Zm18.023 30.284h-7.169v12.596h7.169c3.015 0 6.298-1.273 6.298-6.03v-.603c0-4.757-3.283-5.963-6.298-5.963Zm-.938-20.904h-6.231v11.457h6.231c2.814 0 5.896-1.005 5.896-5.293v-.871c0-4.288-3.082-5.293-5.896-5.293Zm46.716 26.867V118.5H56.7v-16.013L41.691 66.24h11.86l8.575 22.847 8.51-22.847h11.858l-14.94 36.247Z"/><path fill="#000" d="M121.729 102.487V118.5h-10.854v-16.013L95.867 66.24h11.859l8.576 22.847 8.509-22.847h11.859l-14.941 36.247Zm36.222 16.884c-13.534 0-19.899-7.571-19.899-25.661v-2.68c0-18.09 6.365-25.661 19.899-25.661 13.601 0 19.966 7.571 19.966 25.661v2.68c0 18.09-6.365 25.661-19.966 25.661Zm-.268-9.38h.603c6.7 0 8.576-5.829 8.576-16.281v-2.68c0-10.452-1.876-16.281-8.576-16.281h-.603c-6.7 0-8.643 5.829-8.643 16.281v2.68c0 10.452 1.943 16.281 8.643 16.281Zm45.015 9.38c-14.204 0-18.76-6.03-18.76-17.42V66.24h10.854v35.376c0 5.561 1.742 8.375 7.906 8.375s7.973-2.814 7.973-8.375V66.24h10.854v35.711c0 11.39-4.623 17.42-18.827 17.42ZM249 75.62v42.88h-10.854V75.62h-12.06v-9.38h35.041v9.38H249Zm43.057-9.38h10.854v52.26h-10.854V96.524h-15.209V118.5h-10.854V66.24h10.854v20.904h15.209V66.24Zm34.042 30.418c-11.39-1.541-16.75-5.561-16.75-15.008v-.737c0-9.447 6.499-15.544 18.425-15.544 12.864 0 18.492 5.695 18.492 17.956v1.407h-10.854c0-6.834-2.077-9.983-7.571-9.983h-.603c-4.355 0-6.901 2.412-6.901 5.762v.335c0 3.819 1.541 5.829 9.179 6.834 11.39 1.541 17.152 5.427 17.152 15.142v.67c0 10.05-6.633 15.879-18.894 15.879-12.328 0-18.827-5.494-18.827-18.09v-.603h10.854c0 6.566 2.68 9.313 7.705 9.313h.603c5.025 0 7.504-2.68 7.504-6.164v-.335c0-3.752-1.943-5.829-9.514-6.834Z"/></svg>

<svg width="349" height="120" viewBox="0 0 349 120" fill="none" xmlns="http://www.w3.org/2000/svg">
<path d="M3.36 1.7H31.74V10.1H13.08V20.42H28.74V28.82H13.08V48.5H3.36V1.7ZM53.0897 49.28C40.9697 49.28 35.2697 42.5 35.2697 26.3V23.9C35.2697 7.7 40.9697 0.919997 53.0897 0.919997C65.2697 0.919997 70.9697 7.7 70.9697 23.9V26.3C70.9697 42.5 65.2697 49.28 53.0897 49.28ZM52.8497 40.88H53.3897C59.3897 40.88 61.0697 35.66 61.0697 26.3V23.9C61.0697 14.54 59.3897 9.32 53.3897 9.32H52.8497C46.8497 9.32 45.1097 14.54 45.1097 23.9V26.3C45.1097 35.66 46.8497 40.88 52.8497 40.88ZM86.3808 31.7V48.5H76.6608V1.7H92.0208C99.6408 1.7 108.281 3.68 108.281 16.1V17.3C108.281 24.86 105.101 28.58 100.901 30.32L108.281 48.5H97.7808L91.3608 31.7H86.3808ZM86.3808 23.3H92.4408C95.0808 23.3 98.4408 22.28 98.4408 17V16.4C98.4408 11.12 95.0808 10.1 92.4408 10.1H86.3808V23.3Z" fill="#7C3AED"/>
<path d="M145.339 34.16V48.5H135.619V34.16L122.179 1.7H132.799L140.479 22.16L148.099 1.7H158.719L145.339 34.16ZM177.777 49.28C165.657 49.28 159.957 42.5 159.957 26.3V23.9C159.957 7.7 165.657 0.919997 177.777 0.919997C189.957 0.919997 195.657 7.7 195.657 23.9V26.3C195.657 42.5 189.957 49.28 177.777 49.28ZM177.537 40.88H178.077C184.077 40.88 185.757 35.66 185.757 26.3V23.9C185.757 14.54 184.077 9.32 178.077 9.32H177.537C171.537 9.32 169.797 14.54 169.797 23.9V26.3C169.797 35.66 171.537 40.88 177.537 40.88ZM217.848 49.28C205.128 49.28 201.048 43.88 201.048 33.68V1.7H210.768V33.38C210.768 38.36 212.328 40.88 217.848 40.88C223.368 40.88 224.988 38.36 224.988 33.38V1.7H234.708V33.68C234.708 43.88 230.568 49.28 217.848 49.28ZM259.313 10.1V48.5H249.593V10.1H238.793V1.7H270.173V10.1H259.313ZM297.872 1.7H307.592V48.5H297.872V28.82H284.252V48.5H274.532V1.7H284.252V20.42H297.872V1.7ZM328.357 28.94C318.157 27.56 313.357 23.96 313.357 15.5V14.84C313.357 6.38 319.177 0.919997 329.857 0.919997C341.377 0.919997 346.417 6.02 346.417 17V18.26H336.697C336.697 12.14 334.837 9.32 329.917 9.32H329.377C325.477 9.32 323.197 11.48 323.197 14.48V14.78C323.197 18.2 324.577 20 331.417 20.9C341.617 22.28 346.777 25.76 346.777 34.46V35.06C346.777 44.06 340.837 49.28 329.857 49.28C318.817 49.28 312.997 44.36 312.997 33.08V32.54H322.717C322.717 38.42 325.117 40.88 329.617 40.88H330.157C334.657 40.88 336.877 38.48 336.877 35.36V35.06C336.877 31.7 335.137 29.84 328.357 28.94Z" fill="black"/>
<path d="M3.752 66.24H20.904C29.078 66.24 37.721 68.451 37.721 80.712V82.052C37.721 86.809 35.644 89.757 32.629 91.499C36.381 93.308 39.061 96.524 39.061 102.152V103.492C39.061 116.222 29.882 118.5 21.44 118.5H3.752V66.24ZM21.775 96.524H14.606V109.12H21.775C24.79 109.12 28.073 107.847 28.073 103.09V102.487C28.073 97.73 24.79 96.524 21.775 96.524ZM20.837 75.62H14.606V87.077H20.837C23.651 87.077 26.733 86.072 26.733 81.784V80.913C26.733 76.625 23.651 75.62 20.837 75.62ZM67.5533 102.487V118.5H56.6993V102.487L41.6913 66.24H53.5503L62.1263 89.087L70.6353 66.24H82.4943L67.5533 102.487Z" fill="#7C3AED"/>
<path d="M121.729 102.487V118.5H110.875V102.487L95.8671 66.24H107.726L116.302 89.087L124.811 66.24H136.67L121.729 102.487ZM157.951 119.371C144.417 119.371 138.052 111.8 138.052 93.71V91.03C138.052 72.94 144.417 65.369 157.951 65.369C171.552 65.369 177.917 72.94 177.917 91.03V93.71C177.917 111.8 171.552 119.371 157.951 119.371ZM157.683 109.991H158.286C164.986 109.991 166.862 104.162 166.862 93.71V91.03C166.862 80.578 164.986 74.749 158.286 74.749H157.683C150.983 74.749 149.04 80.578 149.04 91.03V93.71C149.04 104.162 150.983 109.991 157.683 109.991ZM202.698 119.371C188.494 119.371 183.938 113.341 183.938 101.951V66.24H194.792V101.616C194.792 107.177 196.534 109.991 202.698 109.991C208.862 109.991 210.671 107.177 210.671 101.616V66.24H221.525V101.951C221.525 113.341 216.902 119.371 202.698 119.371ZM249 75.62V118.5H238.146V75.62H226.086V66.24H261.127V75.62H249ZM292.057 66.24H302.911V118.5H292.057V96.524H276.848V118.5H265.994V66.24H276.848V87.144H292.057V66.24ZM326.099 96.658C314.709 95.117 309.349 91.097 309.349 81.65V80.913C309.349 71.466 315.848 65.369 327.774 65.369C340.638 65.369 346.266 71.064 346.266 83.325V84.732H335.412C335.412 77.898 333.335 74.749 327.841 74.749H327.238C322.883 74.749 320.337 77.161 320.337 80.511V80.846C320.337 84.665 321.878 86.675 329.516 87.68C340.906 89.221 346.668 93.107 346.668 102.822V103.492C346.668 113.542 340.035 119.371 327.774 119.371C315.446 119.371 308.947 113.877 308.947 101.281V100.678H319.801C319.801 107.244 322.481 109.991 327.506 109.991H328.109C333.134 109.991 335.613 107.311 335.613 103.827V103.492C335.613 99.74 333.67 97.663 326.099 96.658Z" fill="black"/>
</svg>
